X: 1
T: David Albert
C: Beth Murray 1991
R: waltz
Z: 2015 John Chambers <jc:trillian.mit.edu>
S: printed page in Concord Slow Scottish Session collection
B: The Waltz Book 3 p.12
N: The 2nd strain has 9 bars.
M: 3/4
L: 1/8
K: D
|:\
"D"FA dd cd | "G"B3 A G2 | "Em"EG Bd cB | "A"cd eA de |\
"D"fe df ed | "G"B3 A G2 | "A"AA d3 c |1 "D"d6 :|2 "D"d3 A de |]
|:\
"D"fg ad cd | "G"B3 d cd | "E/F#"A3 d cd | "Em"GB ed cB |\
"A"cd eA de | "D"fg ad cd | "G"B3 d cB | "A"A2 d2 c2 |1 "D"d3 A de :|2 "D"d6 |]
